d1 $ jux' [id,rev,(# speed 2)] $ every 2 ("<0.25 0.125 0.5>" <~) $ sound "bd*2 [[~ lt] sn:3] lt:1 [ht mt*2]"
  # squiz "<1 2.5 2>"
  # room (slow 4 $ range 0 0.2 saw)
  # sz 0.5
  # orbit 1

d2 $ juxBy 0.5 rev $ chunk 4 ((+ speed (1 + sine)) . ply 8) $ note "3(3,8)" # sound "bass"
  # speed "<2 4>"
  # legato 1

hush